website/static/img/icons/steep.svg

<svg enable-background="new 0 0 192 192" viewBox="0 0 192 192" xmlns="http://www.w3.org/2000/svg"><path d="m144.908508 153.958221c-10.747772 8.764725-22.720543 13.872773-36.125488 15.287568-7.145325.754135-9.048584-1.216355-9.073357-8.325028-.049911-14.328628.010193-28.657669-.050788-42.986206-.007966-1.870476.796295-4.324211-1.721039-5.224434-2.160172-.772484-3.256569 1.296158-4.484642 2.516464-10.518128 10.451607-20.963898 20.97596-31.463433 31.446358-5.272594 5.25798-8.528209 5.207749-13.221492-.555374-17.066927-20.957336-21.50965-44.437645-12.062985-69.724274 9.147808-24.486652 27.632134-38.900989 53.120857-43.39843 39.282288-6.931284 75.717133 21.448697 79.561509 61.329857 2.312179 23.986382-6.102158 43.688278-24.479142 59.633499m-73.237259-97.793388c-28.999084 19.483429-29.523868 56.86512-14.860675 73.340157 1.44004-1.358185 2.909004-2.676567 4.30347-4.069535 10.949516-10.937706 21.86454-21.910011 32.832947-32.828705 5.497307-5.472404 8.472343-5.508209 13.901894-.112396 11.215118 11.145417 22.351448 22.37014 33.570304 33.511772 1.342179 1.332932 2.358521 3.32441 5.065629 3.199456 6.761657-10.539627 9.746673-22.255761 7.835479-34.603371-6.221832-40.19743-47.1017-59.387886-82.649048-38.437378z"/></svg>

<svg version="1.1" id="Layer_1" xmlns="http://www.w3.org/2000/svg" xmlns:xlink="http://www.w3.org/1999/xlink" x="0px" y="0px"
	 width="100%" viewBox="0 0 192 192" enable-background="new 0 0 192 192" xml:space="preserve">
<path fill="#000000" opacity="1.000000" stroke="none" 
	d="
M144.908508,153.958221 
	C134.160736,162.722946 122.187965,167.830994 108.783020,169.245789 
	C101.637695,169.999924 99.734436,168.029434 99.709663,160.920761 
	C99.659752,146.592133 99.719856,132.263092 99.658875,117.934555 
	C99.650909,116.064079 100.455170,113.610344 97.937836,112.710121 
	C95.777664,111.937637 94.681267,114.006279 93.453194,115.226585 
	C82.935066,125.678192 72.489296,136.202545 61.989761,146.672943 
	C56.717167,151.930923 53.461552,151.880692 48.768269,146.117569 
	C31.701342,125.160233 27.258619,101.679924 36.705284,76.393295 
	C45.853092,51.906643 64.337418,37.492306 89.826141,32.994865 
	C129.108429,26.063581 165.543274,54.443562 169.387650,94.324722 
	C171.699829,118.311104 163.285492,138.013000 144.908508,153.958221 
M71.671249,56.164833 
	C42.672165,75.648262 42.147381,113.029953 56.810574,129.504990 
	C58.250614,128.146805 59.719578,126.828423 61.114044,125.435455 
	C72.063560,114.497749 82.978584,103.525444 93.946991,92.606750 
	C99.444298,87.134346 102.419334,87.098541 107.848885,92.494354 
	C119.064003,103.639771 130.200333,114.864494 141.419189,126.006126 
	C142.761368,127.339058 143.777710,129.330536 146.484818,129.205582 
	C153.246475,118.665955 156.231491,106.949821 154.320297,94.602211 
	C148.098465,54.404781 107.218597,35.214325 71.671249,56.164833 
z"/>
</svg>
